X: 1656
T: Sahilde O Hoş Bûseleri...
C: Yesârî Âsım Arsoy
O: Turkey
F: http://compmusic.upf.edu/node/140
N: nihavent--sarki--sofyan--sahilde_o--yesari_asim_arsoy
N: makam= nihavent
N: form= sarki
N: usul= sofyan = 4/4
M: 4/4
L: 1/16
K: C _B _e  
Q: 1/4=54
%%MIDI tuningsystem comma53
g4 d4 c/d/c/d/c/d/c/d/ .B4  | g4 d4 c/d/c/d/c/d/c/d/ .B4  | 
w:  ARANAĞME  |   | 
A3/2B/c3/2B/ A3/2B/c3/2B/ A3/2B/c3/2B/ .d4  | \
w:   | 
d/e/c/d/B/c/A/B/ d/e/c/d/B/c/A/B/ d/e/c/d/B/c/A/B/ .G4  | 
w:   | 
g4 d4 c/d/c/d/c/d/c/d/ .B4  | g4 d4 c/d/c/d/c/d/c/d/ .B4  | 
w:  ARANAĞME  |   | 
A3/2B/c3/2B/ A3/2B/c3/2B/ A3/2B/c3/2B/ .d4  | \
w:   | 
d/e/c/d/B/c/A/B/ d/e/c/d/B/c/A/B/ d/e/c/d/B/c/A/B/ .G4  | 
w:   | 
g4 d4 A2BG d4  | A3B {c}d2B/A/B .G3g dBG2  | \
w:  Sa hil de  o  *  hoş   |  bu *  *  se le *  *  ri  SAZ  | 
d4 e2^f2 {b}a3g (3bag(3fed  | 
w:  al dı ğım  *  ak  | 
.d4 .c4 B/c/B/c/B/c/B/d/ .G4  | g4 d4 A2BG d4  | \
w:  şam   SAZ  |  Sa hil de  o  *  hoş   | 
A3B {c}d2B/A/B .G3g dBG2  | 
w:  bu *  *  se le *  *  ri  SAZ  | 
d4 e2^f2 {b}a3g (3bag(3fed  | .d4 .c4 B/c/B/c/B/c/B/c/ .d4  | 
w:  al dı ğım  *  ak  |  şam   SAZ  | 
f3e def2 d2(3def g2z2  | defg fe(3dcB B8  | 
w:  Kal *  bim  *  *  o  du *  *  dak  |  tan  *  *  *  tu *  tu *  *  şup   | 
A4 BAG2 d4 d/e/c/d/B/c/A/B/  | .G3g fedc B3/2A/Bc d4  | 
w:  yan dı *  ğım_ ak  |  şam   SAZ  | 
f3e def2 d2(3def g2z2  | defg fe(3dcB B8  | 
w:  Kal *  bim  *  *  o  du *  *  dak  |  tan  *  *  *  tu *  tu *  *  şup   | 
A4 BAG2 d4 d/e/c/d/B/c/A/B/  | G4 b4 ab(3c'ba b4  | 
w:  yan dı *  ğım_ ak  |  şam   SAZ  | 
b4 b3a ag(3^fga b4  | d'4 c'bag bag^f g4  | \
w:  Üç  tel  *  sa *  çı *  *  nı   |  has *  *  *  *  ta  *  kı *  rık   | 
^f4 g2b2 agfe defg  | 
w:  sa zı ma  tak  | 
a8 a/g/^f/e/d/e/f/g/ a4  | b4 b3a ag(3^fga b4  | \
w:  tım   SAZ  |  Üç  tel  *  sa *  çı *  *  nı   | 
d'4 c'bag bag^f g4  | 
w:  has *  *  *  *  ta  *  kı *  rık   | 
d4 e2^f2 {b}a3g (3bag(3fed  | .d4 .c4 B/c/B/c/B/c/B/c/ .d4  | 
w:  sa zı ma  *  tak  |  tım   SAZ  | 
f3e def2 d2(3def g2z2  | defg fe(3dcB B8  | 
w:  Kal *  bim  *  *  o  du *  *  dak  |  tan  *  *  *  tu *  tu *  *  şup   | 
A4 BAG2 d4 d/e/c/d/B/c/A/B/  | .G3g fedc B3/2A/Bc d4  | 
w:  yan dı *  ğım_ ak  |  şam   SAZ  | 
f3e def2 d2(3def g2z2  | defg fe(3dcB B8  | 
w:  Kal *  bim  *  *  o  du *  *  dak  |  tan  *  *  *  tu *  tu *  *  şup   | 
A4 BAG2 d4 d/e/c/d/B/c/A/B/  | G4 |
w:  yan dı *  ğım_ ak  |  şam    | 


